flaticon/outdoor/lamp.svg

<svg xmlns="http://www.w3.org/2000/svg" width="32" height="32" viewBox="0 0 24 24">
    <path d="M4.496094 17.085938C4.5625 17.085938 4.628906 17.070312 4.691406 17.035156 4.886719 16.925781 4.960938 16.679688 4.851562 16.480469 3.773438 14.519531 4.679688 10.703125 5.351562 9.617188 5.46875 9.425781 5.410156 9.175781 5.21875 9.058594 5.027344 8.941406 4.777344 9 4.660156 9.191406 3.929688 10.367188 2.84375 14.519531 4.136719 16.875 4.210938 17.007812 4.351562 17.085938 4.496094 17.085938zM17.929688 16.222656C17.820312 16.417969 17.894531 16.667969 18.089844 16.773438 18.152344 16.808594 18.21875 16.824219 18.285156 16.824219 18.429688 16.824219 18.570312 16.75 18.644531 16.613281 19.933594 14.261719 18.851562 10.109375 18.121094 8.929688 18.003906 8.738281 17.75 8.679688 17.5625 8.796875 17.371094 8.917969 17.3125 9.167969 17.429688 9.359375 18.101562 10.445312 19.007812 14.261719 17.929688 16.222656zM13.222656 18.308594C13.742188 17.433594 13.621094 16.191406 12.941406 15.417969 12.46875 14.878906 11.988281 13.898438 12.390625 12.300781L12.753906 10.875 11.710938 11.914062C11.621094 12.003906 9.496094 14.15625 9.601562 16.769531 9.632812 17.542969 9.949219 18.253906 10.472656 18.714844 10.832031 19.03125 11.265625 19.199219 11.707031 19.199219 11.757812 19.199219 11.804688 19.199219 11.851562 19.195312 12.4375 19.144531 12.910156 18.839844 13.222656 18.308594zM12.523438 17.894531C12.339844 18.203125 12.105469 18.355469 11.785156 18.382812 11.441406 18.414062 11.171875 18.25 11.011719 18.105469 10.660156 17.796875 10.4375 17.28125 10.414062 16.734375 10.367188 15.515625 10.914062 14.378906 11.429688 13.589844 11.460938 14.695312 11.898438 15.464844 12.332031 15.957031 12.777344 16.46875 12.863281 17.316406 12.523438 17.894531zM12.523438 17.894531"/>
    <path d="M 20.464844 21.558594 C 20.464844 20.4375 19.550781 19.527344 18.429688 19.527344 C 17.445312 19.527344 16.625 20.226562 16.4375 21.152344 L 16.292969 21.152344 C 16.292969 20.480469 15.746094 19.933594 15.074219 19.933594 L 14.21875 19.933594 C 15.46875 19.152344 16.035156 18.339844 16.726562 16.96875 C 17.511719 15.410156 18.34375 12.003906 15.117188 6.703125 C 13.539062 4.113281 13.832031 2.039062 13.972656 1.042969 C 14.035156 0.601562 14.070312 0.359375 13.898438 0.160156 C 13.8125 0.0585938 13.683594 0 13.546875 0 L 9.300781 0 C 9.167969 0 9.039062 0.0585938 8.953125 0.160156 C 8.777344 0.359375 8.8125 0.601562 8.875 1.042969 C 9.019531 2.039062 9.3125 4.113281 7.734375 6.703125 C 4.503906 12.003906 5.339844 15.410156 6.125 16.96875 C 6.8125 18.339844 7.378906 19.152344 8.632812 19.933594 L 7.445312 19.933594 C 6.773438 19.933594 6.226562 20.480469 6.226562 21.152344 L 5.105469 21.152344 C 4.433594 21.152344 3.886719 21.699219 3.886719 22.371094 L 3.886719 22.78125 C 3.886719 23.453125 4.433594 24 5.105469 24 L 17.613281 24 C 17.980469 24 18.300781 23.835938 18.527344 23.582031 C 19.601562 23.53125 20.464844 22.648438 20.464844 21.558594 Z M 9.835938 19.675781 C 8.183594 18.835938 7.640625 18.171875 6.851562 16.605469 C 6.140625 15.195312 5.40625 12.09375 8.429688 7.125 C 10.160156 4.289062 9.824219 1.933594 9.683594 0.929688 C 9.675781 0.890625 9.671875 0.851562 9.664062 0.8125 L 13.183594 0.8125 C 13.179688 0.851562 13.175781 0.890625 13.167969 0.929688 C 13.027344 1.933594 12.691406 4.289062 14.421875 7.125 C 17.445312 12.09375 16.707031 15.195312 16 16.605469 C 15.210938 18.171875 14.667969 18.835938 13.015625 19.675781 C 12.683594 19.84375 12.304688 19.933594 11.921875 19.933594 L 10.929688 19.933594 C 10.542969 19.933594 10.164062 19.84375 9.835938 19.675781 Z M 7.445312 20.746094 L 15.074219 20.746094 C 15.296875 20.746094 15.480469 20.929688 15.480469 21.152344 L 7.039062 21.152344 C 7.039062 20.929688 7.222656 20.746094 7.445312 20.746094 Z M 5.105469 23.1875 C 4.882812 23.1875 4.699219 23.003906 4.699219 22.78125 L 4.699219 22.371094 C 4.699219 22.148438 4.882812 21.964844 5.105469 21.964844 L 17.617188 21.964844 C 17.839844 21.964844 18.023438 22.148438 18.023438 22.371094 L 18.023438 22.78125 C 18.023438 22.824219 18.011719 22.863281 17.996094 22.90625 C 17.988281 22.925781 17.980469 22.945312 17.972656 22.964844 C 17.902344 23.09375 17.769531 23.1875 17.617188 23.1875 Z M 18.835938 22.707031 L 18.835938 22.371094 C 18.835938 21.699219 18.289062 21.152344 17.617188 21.152344 L 17.277344 21.152344 C 17.445312 20.679688 17.898438 20.339844 18.429688 20.339844 C 19.101562 20.339844 19.648438 20.886719 19.648438 21.558594 C 19.648438 22.089844 19.3125 22.539062 18.835938 22.707031 Z M 18.835938 22.707031"/>
</svg>

<svg xmlns="http://www.w3.org/2000/svg" width="32" height="32" viewBox="0 0 24 24">
    <path d="M4.496 17.086a.41.41 0 0 0 .355-.605c-1.078-1.961-.171-5.778.5-6.864a.406.406 0 1 0-.69-.426c-.731 1.176-1.817 5.329-.524 7.684.074.133.215.21.36.21zm0 0M17.93 16.223a.405.405 0 0 0 .355.601.406.406 0 0 0 .36-.21c1.289-2.352.207-6.505-.524-7.684a.407.407 0 1 0-.691.43c.672 1.085 1.578 4.902.5 6.863zm0 0M13.223 18.309c.52-.875.398-2.118-.282-2.891-.472-.54-.953-1.52-.55-3.117l.363-1.426-1.043 1.04c-.09.089-2.215 2.241-2.11 4.855.032.773.348 1.484.872 1.945.359.316.793.484 1.234.484.05 0 .098 0 .145-.004.585-.05 1.058-.355 1.37-.886zm-.7-.414c-.183.308-.418.46-.738.488a1.022 1.022 0 0 1-.773-.278c-.352-.308-.575-.824-.598-1.37-.047-1.22.5-2.356 1.016-3.145.03 1.105.468 1.875.902 2.367.445.512.531 1.36.191 1.938zm0 0"/>
    <path d="M20.465 21.559a2.036 2.036 0 0 0-4.027-.407h-.145a1.22 1.22 0 0 0-1.219-1.218h-.855c1.25-.782 1.816-1.594 2.508-2.965.785-1.559 1.617-4.965-1.61-10.266-1.578-2.59-1.285-4.664-1.144-5.66.062-.441.097-.684-.075-.883a.46.46 0 0 0-.351-.16H9.3a.458.458 0 0 0-.348.16c-.176.2-.14.442-.078.883.145.996.438 3.07-1.14 5.66-3.231 5.3-2.395 8.707-1.61 10.266.688 1.37 1.254 2.183 2.508 2.965H7.445a1.22 1.22 0 0 0-1.218 1.218H5.105a1.22 1.22 0 0 0-1.218 1.22v.41A1.22 1.22 0 0 0 5.105 24h12.508c.367 0 .688-.164.914-.418a2.03 2.03 0 0 0 1.938-2.023zm-10.63-1.883c-1.651-.84-2.194-1.504-2.983-3.07-.711-1.41-1.446-4.512 1.578-9.481C10.16 4.289 9.824 1.934 9.684.93c-.008-.04-.012-.078-.02-.118h3.52c-.004.04-.008.079-.016.118-.14 1.004-.477 3.36 1.254 6.195 3.023 4.969 2.285 8.07 1.578 9.48-.79 1.567-1.332 2.23-2.984 3.07-.332.169-.711.259-1.094.259h-.992c-.387 0-.766-.09-1.094-.258zm-2.39 1.07h7.63c.222 0 .405.184.405.406H7.04c0-.222.183-.406.405-.406zm-2.34 2.442a.408.408 0 0 1-.406-.407v-.41c0-.223.184-.406.406-.406h12.512c.223 0 .406.183.406.406v.41a.36.36 0 0 1-.027.125l-.023.059a.412.412 0 0 1-.356.223zm13.73-.481v-.336a1.22 1.22 0 0 0-1.218-1.219h-.34a1.22 1.22 0 0 1 2.371.406c0 .532-.335.981-.812 1.149zm0 0"/>
</svg>
